packages/core/src/svgs/tokens/mono/BTCP.svg

<svg width="24" height="24" viewBox="0 0 24 24" fill="none" xmlns="http://www.w3.org/2000/svg">
<path d="M12.4362 2L11.695 4.76695L7.82183 3.72892L7.22834 5.94191L8.88851 6.38703C8.96119 6.4065 9.02932 6.4401 9.08902 6.48591C9.1487 6.53172 9.19877 6.58884 9.23639 6.654C9.274 6.71918 9.29841 6.79112 9.30821 6.86571C9.31802 6.94031 9.31303 7.01611 9.29353 7.08879L7.21804 14.8357C7.19856 14.9084 7.16496 14.9764 7.11915 15.0362C7.07334 15.0959 7.01621 15.1459 6.95105 15.1836C6.88588 15.2212 6.81394 15.2456 6.73934 15.2554C6.66474 15.2652 6.58895 15.2602 6.51627 15.2407L5.40949 14.9439L4.26318 17.0091L8.13634 18.0472L7.39505 20.8142L9.05523 21.2587L11.4274 12.405L13.3638 12.9241C15.539 13.5066 18.9871 12.9675 19.6591 10.4589C20.2038 8.42529 17.7817 6.39733 16.1215 5.95279L16.8634 3.18583L15.2032 2.74129L14.462 5.50824L13.3552 5.2115L14.0964 2.44454L12.4362 2ZM12.7623 7.42506L15.0067 8.02657C15.2274 8.08261 15.4346 8.18188 15.6165 8.31865C15.7984 8.45542 15.9513 8.62696 16.0664 8.82331C16.1814 9.01965 16.2564 9.23691 16.2869 9.46245C16.3172 9.68793 16.3026 9.91731 16.2437 10.1372C16.1847 10.3569 16.0827 10.5629 15.9436 10.743C15.8044 10.923 15.6309 11.0738 15.4331 11.1862C15.2353 11.2988 15.0171 11.3708 14.7912 11.3984C14.5652 11.4258 14.3361 11.4081 14.1171 11.3464L11.8726 10.7449L12.7623 7.42506Z" fill="white"/>
<path d="M13.4652 17.1025C13.8785 17.2132 14.3164 17.1889 14.7148 17.0329C15.1132 16.877 15.4514 16.5978 15.6797 16.2359C15.9081 15.8741 16.0148 15.4487 15.984 15.0219C15.9533 14.5953 15.787 14.1895 15.5092 13.8641C16.8692 13.8629 17.2955 13.6973 18.0665 13.3972L18.3093 13.3032C19.1257 14.2794 19.4745 15.5775 19.1354 16.8424C18.5855 18.895 15.8719 19.968 13.6732 19.5211L13.6709 19.5297L12.5641 19.2329L11.8228 21.9999L10.1626 21.5548L11.4974 16.5749L13.4652 17.1025Z" fill="white"/>
</svg>

<svg xmlns="http://www.w3.org/2000/svg" width="24" height="24" fill="none" viewBox="0 0 24 24">
    <path fill="#fff" d="m12.436 2-.741 2.767-3.873-1.038-.594 2.213 1.66.445a.573.573 0 0 1 .406.702l-2.076 7.747a.574.574 0 0 1-.702.405l-1.107-.297-1.146 2.065 3.873 1.038-.74 2.767 1.66.445 2.371-8.854 1.937.52c2.175.582 5.623.042 6.295-2.466.545-2.034-1.877-4.062-3.537-4.506l.741-2.767-1.66-.445-.741 2.767-1.107-.296.741-2.767zm.326 5.425 2.245.602a1.718 1.718 0 1 1-.89 3.32l-2.244-.602z"/>
    <path fill="#fff" d="M13.465 17.103a2.005 2.005 0 0 0 2.044-3.239c1.36-.001 1.787-.167 2.558-.467l.242-.094c.817.976 1.165 2.274.826 3.54-.55 2.052-3.263 3.125-5.462 2.678l-.002.009-1.107-.297L11.823 22l-1.66-.445 1.334-4.98z"/>
</svg>
